X: 10321
T: Domhnall Dubh
R: strathspey
M: 4/4
K: Dmajor
|:A2 B<d f2 e<f|e>Bd>B G>AB<G|A2 B<d f2 e<f|e>Bd>B A2 A2:|
|:c>AA<A A>Bc>d|B>cB>A G>AB<d|c>AA<A A>Bc>d|(3ege d>B A2 A2:|

